X:1
T:Sweet Genevieve
T:Sweet Genevieve
T:Henry Tucker
C:Henry Tucker
%%score 1 2 3
L:1/8
M:3/4
K:F
V:1 treble nm="Flute" snm="Fl."
V:2 treble transpose=-2 nm="B♭ Clarinet" snm="B♭ Cl."
V:3 treble transpose=-2 nm="B♭ Clarinet" snm="B♭ Cl."
V:1
 c2 | a>^g a2 b2 | a>_a g2 c2 | g>^f g2 a2 | (3gfd c2 c2 | a>^g a2 c'2 | c'>=b _b3 b | a>^g a2 c2 | %8
 g>f f2 z f | ga b2 d2 | cf a2 f2 | ga c'2 b2 | fg a2 z a | aa b2 a2 | ga d2 e2 | ff g2 f2 | %16
 ed !fermata!a!fermata!b c2 | a>^g a2 b2 | a>_a g2 c2 | g>^f g2 a2 | (3gfd c2 c2 | a>^g a2 c'2 | %22
 c'>=b _b3 b | a>^g a2 c2 | g>f f2 z z |] %25
V:2
[K:G] B2 | d>^c d2 e2 | d>^c =c2 c2 | c>B c2 d2 | (3:2:2d2 c B2 B2 | d>^c d2 =f2 | e>e e3 _e | %7
 d>^c d2 B2 | f>B B2 z B | cd c2 c2 | BB B2 B2 | cd G2 G2 | cc d2 z d | ^dd d2 d2 | ee e2 e2 | %15
 ee e2 e2 | ee !fermata!^d!fermata!=d c2 | d>^c d2 e2 | d>^c =c2 c2 | c>B c2 d2 | %20
 (3:2:2d2 c B2 B2 | d>^c d2 =f2 | e>e e3 _e | d>^c d2 B2 | f>B B2 z z |] %25
V:3
[K:G] G2 | G>G G2 G2 | G>E F2 F2 | F>^E F2 F2 | (3:2:2B,2 G, G,2 G,2 | G>G G2 B,2 | C>G c3 A | %7
 G>G G2 D2 | D>G G2 z G | F=F E2 E2 | GG G2 G2 | F=F E2 E2 | E_E D2 z G | AF F2 A2 | FG G2 A2 | %15
 Bd c2 c2 | ^AA !fermata!B!fermata!F D2 | G>G G2 G2 | G>E F2 F2 | F>^E F2 F2 | %20
 (3:2:2B,2 G, G,2 G,2 | G>G G2 B,2 | C>G c3 A | G>G G2 D2 | D>G G2 z z |] %25

